X: 5429
T: Bull Ring, The
R: reel
M: 4/4
K: Gmajor
|:G2 ge dBBA|G2 GA GEDE|G2 BG dGBG|A2 cA eAcA|
G2 ge dBBA|G2 GA GEDB,|G,B,DG BgdB|1 AGAB G3 D:|2 AGAB G3 f||
|:gfge dgBA|G2 GA GEDE|G2 BG dGBG|A2 cA eAce|
gfge dgBA|G2 Bc dgbg|edeg BgdB|1 AGAB G3 f:|2 AGAB G4||

